icon/play-icon-black2.svg

<?xml version="1.0" encoding="UTF-8" standalone="no"?><!DOCTYPE svg PUBLIC "-//W3C//DTD SVG 1.1//EN" "http://www.w3.org/Graphics/SVG/1.1/DTD/svg11.dtd"><svg width="100%" height="100%" viewBox="0 0 223 259" version="1.1" xmlns="http://www.w3.org/2000/svg" xmlns:xlink="http://www.w3.org/1999/xlink" xml:space="preserve" xmlns:serif="http://www.serif.com/" style="fill-rule:evenodd;clip-rule:evenodd;stroke-linejoin:round;stroke-miterlimit:2;"><path d="M208.143,155.754l-160.989,98.297c-9.568,5.843 -21.546,6.063 -31.323,0.577c-9.778,-5.486 -15.831,-15.823 -15.831,-27.035l0,-196.593c-0,-11.212 6.053,-21.549 15.831,-27.035c9.777,-5.486 21.755,-5.265 31.323,0.577l160.989,98.297c9.22,5.63 14.845,15.654 14.845,26.458c-0,10.803 -5.625,20.827 -14.845,26.457Z"/></svg>

<?xml version="1.0" encoding="UTF-8" standalone="no"?><!DOCTYPE svg PUBLIC "-//W3C//DTD SVG 1.1//EN" "http://www.w3.org/Graphics/SVG/1.1/DTD/svg11.dtd"><svg width="100%" height="100%" viewBox="0 0 223 259" version="1.1" xmlns="http://www.w3.org/2000/svg" xmlns:xlink="http://www.w3.org/1999/xlink" xml:space="preserve" xmlns:serif="http://www.serif.com/" style="fill-rule:evenodd;clip-rule:evenodd;stroke-linejoin:round;stroke-miterlimit:2;"><path d="M208.143,155.754L47.154,254.051C37.586,259.894 25.608,260.114 15.831,254.628C6.053,249.142 0,238.805 0,227.593L0,31C-0,19.788 6.053,9.451 15.831,3.965C25.608,-1.521 37.586,-1.3 47.154,4.542L208.143,102.839C217.363,108.469 222.988,118.493 222.988,129.297C222.988,140.1 217.363,150.124 208.143,155.754Z"/></svg>
